X: 21523
T: HOOP HER AND GIRD HER -- Jig
R: jig
B: K\"ohler's Violin Repository, v.2, 1885 p.152 #3
F: http://www.archive.org/details/klersviolinrepos02rugg
Z: 2012 John Chambers <jc:trillian.mit.edu>
M: 6/8
L: 1/8
K: G
|:\
v(.G2.G) (B/c/)dB | GBG (B2{cB}A) | GBG GdB | A=FA (c2A) |\
G3 GdB | GAB gdB | cac BgB | A=FA (c2A) :|
|:\
vg3 def | gfe dBG | g3 de=f | A=FA (c2A) |\
g3 def | gfe dcB | aca BgB | A=FA (c2A) :|
|:\
vBGG ADD | BGG ABc | BGG ADD | A=FA ABc |\
BGG ADD | GAB gdB | cac BgB | A=FA (c2A) :|
|:\
vgdB gdB | GAB (d2B) | gdB gdB | A=FA (c2A) |\
gdB gdB | GAB gdB | cac BgB | A=FA (c2A) :|
% %center (To be continued.)

% newpage
%%sep 2 1 500

